!!!!SEGMENT: pl-cz--ii-245--002_anonim--partita-b-allegro.krn
!!!id: 18xx:2487
!!!COM: Anonim
!!!COM-rism: pe30004985
!!!CDT:
!!!CNT:
!!!OTL: Partita B - Allegro
!!!PDT:
!!!SMS-siglum: PL-CZ
!!!SMS-shelfmark: II-245
!!!NIFC-rismID: 1001012549
!!!URL-scan: http://repozytorium.nifc.pl/skany/pl-cz-nut--ii-245
!!!ONB-nifc: UWAGA: części Partity: 1. Andante, 2. Allegro, 3. Adagio, 4. Polo
!!!SMS-variant:
!!!SMS-altvar:
**kern	**dynam	**kern	**dynam	**kern	**kern	**dynam	**kern
*part5	*part5	*part4	*part4	*part3	*part2	*part2	*part1
*staff5	*	*staff4	*	*staff3	*staff2	*	*staff1
*I"Cornu Secundo. in B.	*	*I"Cornu Primu in B.	*	*I"Fagotto.	*I"Clarinetto Secundo. in B.	*	*I"Clarinetto. Primo in B.
*I'cor 2 in B	*	*I'Cor 1 in B	*	*I'fag	*I'cl 2	*	*I'cl 1
*clefG2	*	*clefG2	*	*clefF4	*clefG2	*	*clefG2
*ITrd1c2	*	*ITrd1c2	*	*	*ITrd1c2	*	*ITrd1c2
*k[b-e-]	*	*k[b-e-]	*	*k[]	*k[b-e-]	*	*k[b-e-]
*M2/2	*	*M2/2	*	*M2/2	*M2/2	*	*M2/2
*met(c|)	*	*met(c|)	*	*met(c|)	*met(c|)	*	*met(c|)
*>[A,A,B,B]	*	*	*	*	*	*	*
=1	=1	=1	=1	=1	=1	=1	=1
*>A	*	*	*	*	*	*	*
*	*	*	*	*	*2\right	*	*
!LO:TX:rj:a:t=Allegro	!	!LO:TX:rj:a:t=Allegro	!	!	!LO:TX:a:t=Allegro	!	!
[>1B-/	.	(1b-\	.	1ryy	(2.dd\	.	1ryy
.	.	.	.	.	8cc\L	.	.
.	.	.	.	.	8b-\J)	.	.
=2	=2	=2	=2	=2	=2	=2	=2
1B-/_>	.	1b-\	.	1ryy	(2.gg\	.	1ryy
.	.	.	.	.	8ff\L	.	.
.	.	.	.	.	8ee-\J)	.	.
=3	=3	=3	=3	=3	=3	=3	=3
1B-/]	.	1b-\)	.	1ryy	4dd'\	.	1ryy
.	.	.	.	.	4ee-'\	.	.
.	.	.	.	.	4dd'\	.	.
.	.	.	.	.	4ee-'\	.	.
=4	=4	=4	=4	=4	=4	=4	=4
4.dd\	.	4.ff\	.	1ryy	4.dd\	.	1ryy
8cc\	.	8ee-\	.	.	8cc\	.	.
4b-\	.	4dd\	.	.	4b-\	.	.
4r	.	4r	.	.	4r	.	.
=5	=5	=5	=5	=5	=5	=5	=5
2r	.	2r	.	1ryy	(8a\L	p	1ryy
.	.	.	.	.	8b-\)	.	.
.	.	.	.	.	(8a\	.	.
.	.	.	.	.	8b-\J)	.	.
!	!LO:DY:rj	!	!	!	!LO:LB;g=original	!	!
(4f/	p	(4cc\	p	.	4cc\	.	.
4cc/)	.	4ee-\)	.	.	4r	.	.
=6	=6	=6	=6	=6	=6	=6	=6
4b-\	.	4dd\	.	1ryy	(8b-\L	.	1ryy
.	.	.	.	.	8cc\)	.	.
4r	.	4r	.	.	(8b-\	.	.
.	.	.	.	.	8cc\J)	.	.
(4b-\	.	(4dd\	.	.	4dd\	.	.
4dd\)	.	4ff\)	.	.	4r	.	.
!LO:LB:g=original	!	!LO:LB:g=original	!	!	!	!	!
=7	=7	=7	=7	=7	=7	=7	=7
!	!	!	!LO:DY:t=for.	!	!	!	!
4dd\	.	4ff\	f	1ryy	(8dd\L	.	1ryy
.	.	.	.	.	8ee-\)	f	.
4r	.	4r	.	.	(8cc\	.	.
.	.	.	.	.	8dd\J)	.	.
4r	.	4r	.	.	(8ee-\L	.	.
.	.	.	.	.	8dd\	.	.
8cc\L	.	(8ee-\L	.	.	8cc\	.	.
8b-\J	.	8dd\J)	.	.	8b-\J)	.	.
=8	=8	=8	=8	=8	=8	=8	=8
*2\right	*	*2\right	*	*	*	*	*
2b-\	.	2dd\	.	1ryy	(2b-\	.	1ryy
4f/	.	4cc\	.	.	4a\)	.	.
4r	.	4r	.	.	4ryy	.	.
=9:|!|:	=9:|!|:	=9:|!|:	=9:|!|:	=9:|!|:	=9:|!|:	=9:|!|:	=9:|!|:
*>B	*	*	*	*	*	*	*
!	!LO:DY:t=p&colon;	!	!LO:DY:rj	!	!	!LO:DY:rj	!
(1cc\	p	(1cc\	p	1ryy	16F/LL	p	1ryy
.	.	.	.	.	16c/	.	.
.	.	.	.	.	16A/	.	.
.	.	.	.	.	16c/JJ	.	.
*	*	*	*	*	*rep	*	*
.	.	.	.	.	16F/LL	.	.
.	.	.	.	.	16c/	.	.
.	.	.	.	.	16A/	.	.
.	.	.	.	.	16c/JJ	.	.
.	.	.	.	.	16F/LL	.	.
.	.	.	.	.	16c/	.	.
.	.	.	.	.	16A/	.	.
.	.	.	.	.	16c/JJ	.	.
.	.	.	.	.	16F/LL	.	.
.	.	.	.	.	16c/	.	.
.	.	.	.	.	16A/	.	.
.	.	.	.	.	16c/JJ	.	.
*	*	*	*	*	*Xrep	*	*
!	!	!	!	!	!LO:LB:g=original	!	!
=10	=10	=10	=10	=10	=10	=10	=10
1b-\)	.	1dd\)	.	1ryy	16F/LL	.	1ryy
.	.	.	.	.	16d/	.	.
.	.	.	.	.	16B-/	.	.
.	.	.	.	.	16d/JJ	.	.
*	*	*	*	*	*rep	*	*
.	.	.	.	.	16F/LL	.	.
.	.	.	.	.	16d/	.	.
.	.	.	.	.	16B-/	.	.
.	.	.	.	.	16d/JJ	.	.
.	.	.	.	.	16F/LL	.	.
.	.	.	.	.	16d/	.	.
.	.	.	.	.	16B-/	.	.
.	.	.	.	.	16d/JJ	.	.
.	.	.	.	.	16F/LL	.	.
.	.	.	.	.	16d/	.	.
.	.	.	.	.	16B-/	.	.
.	.	.	.	.	16d/JJ	.	.
*	*	*	*	*	*Xrep	*	*
=11	=11	=11	=11	=11	=11	=11	=11
4cc'\	.	4cc\	.	1ryy	4c/	.	1ryy
4cc'\	.	4cc\	.	.	4c/	.	.
4b-'\	.	4dd\	.	.	4B-/	.	.
4b-'\	.	4dd\	.	.	4B-/	.	.
=12	=12	=12	=12	=12	=12	=12	=12
!	!	!	!	!	!LO:N:vis=16	!	!
4f/	.	4cc\	.	1ryy	8A/L	.	1ryy
!	!	!	!	!	!LO:N:vis=16	!	!
.	.	.	.	.	(8f/	.	.
!	!LO:DY:t=for&colon;	!	!LO:DY:t=for&colon;	!	!LO:N:vis=16	!	!
4f/	f	4ff\	f	.	8eX/	.	.
!	!	!	!	!	!LO:N:vis=16	!	!
.	.	.	.	.	8f/J	.	.
!	!	!	!	!	!LO:N:vis=16	!	!
4f/	.	4ff\	.	.	8g/L	.	.
!	!	!	!	!	!LO:N:vis=16	!	!
.	.	.	.	.	8f/	.	.
!	!	!	!	!	!LO:N:vis=16	!	!
4f/	.	4ff\	.	.	8eX/	.	.
!	!	!	!	!	!LO:N:vis=16	!	!
.	.	.	.	.	8f/J)	.	.
=13	=13	=13	=13	=13	=13	=13	=13
!	!	!	!LO:DY:t=p&colon;	!	!	!	!
(1cc\	p	1ff\	p	1ryy	16F/LL	.	1ryy
.	.	.	.	.	16c/	.	.
.	.	.	.	.	16A/	.	.
.	.	.	.	.	16c/JJ	.	.
*	*	*	*	*	*rep	*	*
.	.	.	.	.	16F/LL	.	.
.	.	.	.	.	16c/	.	.
.	.	.	.	.	16A/	.	.
.	.	.	.	.	16c/JJ	.	.
.	.	.	.	.	16F/LL	.	.
.	.	.	.	.	16c/	.	.
.	.	.	.	.	16A/	.	.
.	.	.	.	.	16c/JJ	.	.
.	.	.	.	.	16F/LL	.	.
.	.	.	.	.	16c/	.	.
.	.	.	.	.	16A/	.	.
.	.	.	.	.	16c/JJ	.	.
*	*	*	*	*	*Xrep	*	*
!LO:LB:g=original	!	!	!	!	!	!	!
=14	=14	=14	=14	=14	=14	=14	=14
1b-\)	.	1ff\	.	1ryy	16F/LL	.	1ryy
.	.	.	.	.	16d/	.	.
.	.	.	.	.	16B-/	.	.
.	.	.	.	.	16d/JJ	.	.
*	*	*	*	*	*rep	*	*
.	.	.	.	.	16F/LL	.	.
.	.	.	.	.	16d/	.	.
.	.	.	.	.	16B-/	.	.
.	.	.	.	.	16d/JJ	.	.
.	.	.	.	.	16F/LL	.	.
.	.	.	.	.	16d/	.	.
.	.	.	.	.	16B-/	.	.
.	.	.	.	.	16d/JJ	.	.
.	.	.	.	.	16F/LL	.	.
.	.	.	.	.	16d/	.	.
.	.	.	.	.	16B-/	.	.
.	.	.	.	.	16d/JJ	.	.
*	*	*	*	*	*Xrep	*	*
!	!	!LO:LB:g=original	!	!	!	!	!
=15	=15	=15	=15	=15	=15	=15	=15
!	!LO:DY:rj:t=for	!	!	!	!	!LO:DY:t=for.	!
2b-\	f	2dd\	f	1ryy	2dd\	f	1ryy
2cc\	.	2cc\	.	.	(8cc\L	.	.
.	.	.	.	.	8b-\	.	.
.	.	.	.	.	8a\	.	.
.	.	.	.	.	8g\J)	.	.
=16	=16	=16	=16	=16	=16	=16	=16
*tremolo	*	*tremolo	*	*	*	*	*
!	!	!	!LO:DY:t=p&colon;	!	!	!	!
8cc'\L	p	8cc'\L	p	1ryy	2.a\	.	1ryy
8cc'\	.	8cc'\	.	.	.	.	.
8cc'\	.	8cc'\	.	.	.	.	.
8cc'\J	.	8cc'\J	.	.	.	.	.
8cc'\L	.	8cc'\L	.	.	.	.	.
8cc'\	.	8cc'\	.	.	.	.	.
8cc'\	.	8cc'\	.	.	4b-\	.	.
8cc'\J	.	8cc'\J	.	.	.	.	.
=17	=17	=17	=17	=17	=17	=17	=17
8cc'\L	.	8cc'\L	.	1ryy	2.a\	.	1ryy
8cc'\	.	8cc'\	.	.	.	.	.
8cc'\	.	8cc'\	.	.	.	.	.
8cc'\J	.	8cc'\J	.	.	.	.	.
8cc'\L	.	8cc'\L	.	.	.	.	.
8cc'\	.	8cc'\	.	.	.	.	.
8cc'\	.	8cc'\	.	.	4b-\	.	.
8cc'\J	.	8cc'\J	.	.	.	.	.
=18	=18	=18	=18	=18	=18	=18	=18
8cc'\L	.	8cc'\L	.	1ryy	4a\	.	1ryy
8cc'\	.	8cc'\	.	.	.	.	.
8cc'\	.	8cc'\	.	.	4b-\	.	.
8cc'\J	.	8cc'\J	.	.	.	.	.
8cc'\L	.	8cc'\L	.	.	(4a\	.	.
8cc'\	.	8cc'\	.	.	.	.	.
8cc'\	.	8cc'\	.	.	4b-\)	.	.
8cc'\J	.	8cc'\J	.	.	.	.	.
*Xtremolo	*	*Xtremolo	*	*	*	*	*
=19	=19	=19	=19	=19	=19	=19	=19
2cc;\	.	2cc;\	.	1ryy	2a;\	.	1ryy
2r	.	2r	.	.	2r	.	.
!	!	!	!	!	!LO:LB;g=original	!	!
=20	=20	=20	=20	=20	=20	=20	=20
!	!LO:DY:rj	!	!	!	!	!	!
[>1B-/	f	(1b-\	f	1ryy	(2.dd\	.	1ryy
.	.	.	.	.	8cc\L	.	.
.	.	.	.	.	8b-\J)	.	.
=21	=21	=21	=21	=21	=21	=21	=21
1B-/_>	.	1b-\	.	1ryy	(2.gg\	.	1ryy
.	.	.	.	.	8ff\L	.	.
.	.	.	.	.	8ee-\J)	.	.
!LO:LB:g=original	!	!	!	!	!	!	!
=22	=22	=22	=22	=22	=22	=22	=22
1B-/_>	.	1b-\)	.	1ryy	4dd'\	.	1ryy
.	.	.	.	.	4ee-'\	.	.
.	.	.	.	.	4dd'\	.	.
.	.	.	.	.	4ee-'\	.	.
=23	=23	=23	=23	=23	=23	=23	=23
1B-/]	.	1b-\	.	1ryy	4.dd\	.	1ryy
.	.	.	.	.	8cc\	.	.
.	.	.	.	.	4b-\	.	.
.	.	.	.	.	4r	.	.
!	!	!LO:LB:g=original	!	!	!	!	!
=24	=24	=24	=24	=24	=24	=24	=24
4f/	.	4cc\	.	1ryy	(8a\L	p	1ryy
.	p	.	.	.	8b-\)	.	.
4r	.	4r	.	.	(8a\	.	.
.	.	.	.	.	8b-\J)	.	.
2f/	.	(4cc\	.	.	4cc\	.	.
.	.	4ee-\)	.	.	4r	.	.
!	!	!	!	!	!LO:LB:g=original	!	!
=25	=25	=25	=25	=25	=25	=25	=25
4b-\	.	4dd\	.	1ryy	(8b-\L	.	1ryy
.	.	.	.	.	8cc\)	.	.
4r	.	4r	.	.	(8b-\	.	.
.	.	.	.	.	8cc\J)	.	.
4b-\	.	4dd\	.	.	4dd\	.	.
4dd\	.	4ff\	.	.	4r	.	.
=26	=26	=26	=26	=26	=26	=26	=26
2b-\	f	2b-\	.	1ryy	8ee-\L	.	1ryy
.	.	.	.	.	8gg\	.	.
.	.	.	.	.	8ff\	.	.
.	.	.	.	.	8ee-\J	.	.
4r	.	4r	.	.	8dd\L	.	.
.	.	.	.	.	8cc\	.	.
4f/	.	4cc\	.	.	8b-\	.	.
.	.	.	.	.	8a\J	.	.
=27	=27	=27	=27	=27	=27	=27	=27
(2f/	.	2cc\	.	1ryy	(2a\	.	1ryy
4d/)	.	4b-\	.	.	4b-\)	.	.
4r	.	4r	.	.	4r	.	.
=:|!	=:|!	=:|!	=:|!	=:|!	=:|!	=:|!	=:|!
*-	*-	*-	*-	*-	*-	*-	*-
!!!system-decoration: [(s1,s2,s3)][(s4,s5)]
!!!RDF**kern: > = above
!!!RDF**kern: < = below
!!!ENC: Krzysztof Stępień
!!!END: 2021-06-17
!!!EED: Leszek Kubiak
!!!EST: 2021-06-23
